assets/illustrations/default/attendance-2.svg

<svg xmlns="http://www.w3.org/2000/svg" width="1080" height="1081" fill="none"><path fill="url(#a)" d="m922.456 906.467-7.473-87.589-57.175 19.986 19.811-17.726L621.459 533 482.43 656.736l212.366 238.956 43.794 49.181.174-.173 26.416 29.543c57.697 64.827 164.575 18.769 157.276-67.776"/><path fill="#35DE90" d="M543.082 499.458H157.798c-52.657 0-97.842 37.885-106.879 89.847L0 882.483c6.43 18.073 16.857 44.489 29.022 68.298H593.48l56.307-324.286c11.644-66.386-39.45-127.037-106.705-127.037"/><path fill="url(#b)" d="M1056.62 210.8H651.525c-9.558 0-17.378 7.82-17.378 17.378v29.718h-29.718c-14.25 0-21.549 17.379-11.296 27.458l41.014 41.014v153.8c0 9.559 7.82 17.379 17.378 17.379h405.095c9.56 0 17.38-7.82 17.38-17.379v-251.99c0-9.558-7.65-17.378-17.38-17.378"/><path fill="url(#c)" d="m742.415 689.929-18.421 162.837-35.105-223.141z"/><path fill="url(#d)" d="m174.307 950.782 41.709-240.52 259.115 240.52z"/><path fill="#0096FA" d="m860.589 567.062-132.078-12.165c-4.866-.521-8.341-4.692-7.82-9.384l21.028-230.093c.522-4.692 4.692-8.342 9.384-7.821l132.078 12.166c4.866.521 8.342 4.692 7.82 9.384l-21.027 230.093c-.348 4.692-4.693 8.168-9.385 7.82"/><path fill="#0C4EC0" d="m875.883 568.278-132.077-12.165c-4.866-.521-8.342-4.692-7.821-9.384l21.029-230.093c.521-4.866 4.692-8.342 9.384-7.821l132.077 12.165c4.866.522 8.342 4.693 7.821 9.385l-21.028 230.093c-.348 4.692-4.693 8.168-9.385 7.82"/><path fill="#FCAA73" d="m906.99 610.682 35.627-155.191-44.837-80.29-91.586.522.348 18.768 51.267 12.165-85.677 10.08 3.997 17.379 54.222 4.518-61.347 21.028 6.951 17.726 48.834-.695-41.013 20.507 6.082 11.818 33.02-5.562 20.68 17.727-36.495 38.754 5.909 44.315"/><path fill="#F06305" d="M531.96 310.727h-38.407c-5.735 0-10.428-4.692-10.428-10.427V177.433c0-5.735 4.693-10.427 10.428-10.427h38.407c5.735 0 10.427 4.692 10.427 10.427V300.3c0 5.735-4.692 10.427-10.427 10.427M326.544 414.13h-38.407c-5.735 0-10.427-4.692-10.427-10.427v-99.058c0-5.735 4.692-10.427 10.427-10.427h38.407c5.735 0 10.427 4.692 10.427 10.427v98.884c0 5.909-4.692 10.601-10.427 10.601"/><path fill="#FCAA73" d="M497.897 142.327H315.595l-13.903 13.903v342.88h134.685v-54.916h61.52l13.903-13.903V156.23z"/><path fill="url(#e)" d="M317.333 361.646h-15.641v57.35h15.641z"/><path fill="url(#f)" d="m388.758 463.311 47.618 35.8v-54.917h-47.618z"/><path fill="#F06305" fill-rule="evenodd" d="M457.141 292.024a2.39 2.39 0 0 1 3.151 1.231l30.76 70.21a2.395 2.395 0 0 1-2.191 3.353h-33.714a2.393 2.393 0 1 1 0-4.785H485.2l-29.291-66.857a2.393 2.393 0 0 1 1.232-3.152" clip-rule="evenodd"/><path fill="#FCAA73" d="M285.183 361.646h38.233v-59.783h-51.789v46.227c0 7.473 6.083 13.556 13.556 13.556"/><path fill="#F06305" d="M295.957 126.514h209.239c5.735 0 10.427 4.692 10.427 10.427v55.264c0 5.735-4.692 10.427-10.427 10.427H295.957c-5.734 0-10.427-4.692-10.427-10.427v-55.264c0-5.735 4.693-10.427 10.427-10.427"/><path fill="#F06305" d="M307.775 310.727h-38.406c-5.735 0-10.428-4.692-10.428-10.427V175.174c0-5.735 4.693-10.427 10.428-10.427h38.406c5.735 0 10.428 4.692 10.428 10.427V300.3c0 5.735-4.693 10.427-10.428 10.427"/><path fill="#F06305" d="M342.533 245.558h-38.407c-5.735 0-10.427-4.692-10.427-10.427v-38.407c0-5.735 4.692-10.427 10.427-10.427h38.407c5.735 0 10.427 4.692 10.427 10.427v38.407c0 5.735-4.692 10.427-10.427 10.427M527.44 236.867h-23.287c-5.735 0-10.427-4.692-10.427-10.427v-23.287c0-5.735 4.692-10.427 10.427-10.427h23.287c5.735 0 10.428 4.692 10.428 10.427v23.287c0 5.735-4.693 10.427-10.428 10.427"/><path fill="url(#g)" d="M758.925 687.668 746.586 803.41l-57.697-194.467z"/><path fill="#35DE90" d="M921.066 921.586 742.24 843.73l27.632-257.725 185.082 19.812z"/><defs><linearGradient id="a" x1="781.846" x2="517.719" y1="738.811" y2="938.852" gradientUnits="userSpaceOnUse"><stop offset=".247" stop-color="#35DE90"/><stop offset=".443" stop-color="#2FD287"/><stop offset=".802" stop-color="#20B16E"/><stop offset=".897" stop-color="#1BA766"/></linearGradient><linearGradient id="b" x1="1070.88" x2="636.74" y1="191.979" y2="516.792" gradientUnits="userSpaceOnUse"><stop stop-color="#C5D9FB"/><stop offset=".184" stop-color="#DAE5F8"/><stop offset=".393" stop-color="#E9EEF6"/><stop offset=".636" stop-color="#F2F3F5"/><stop offset=".984" stop-color="#F5F5F5"/></linearGradient><linearGradient id="c" x1="691.755" x2="789.078" y1="743.934" y2="725.936" gradientUnits="userSpaceOnUse"><stop offset=".247" stop-color="#35DE90"/><stop offset=".443" stop-color="#2FD287"/><stop offset=".802" stop-color="#20B16E"/><stop offset=".897" stop-color="#1BA766"/></linearGradient><linearGradient id="d" x1="367.251" x2="153.606" y1="811.608" y2="997.833" gradientUnits="userSpaceOnUse"><stop offset=".053" stop-color="#35DE90"/><stop offset=".308" stop-color="#2FD287"/><stop offset=".773" stop-color="#20B16E"/><stop offset=".897" stop-color="#1BA766"/></linearGradient><linearGradient id="e" x1="332.717" x2="279.986" y1="399.906" y2="378.103" gradientUnits="userSpaceOnUse"><stop offset=".297" stop-color="#FCAA73"/><stop offset=".43" stop-color="#FCA76F"/><stop offset=".564" stop-color="#FAA063"/><stop offset=".7" stop-color="#F8924E"/><stop offset=".836" stop-color="#F58032"/><stop offset=".971" stop-color="#F1690E"/><stop offset="1" stop-color="#F06305"/></linearGradient><linearGradient id="f" x1="395.442" x2="451.303" y1="488.087" y2="434.482" gradientUnits="userSpaceOnUse"><stop offset=".297" stop-color="#FCAA73"/><stop offset=".43" stop-color="#FCA76F"/><stop offset=".564" stop-color="#FAA063"/><stop offset=".7" stop-color="#F8924E"/><stop offset=".836" stop-color="#F58032"/><stop offset=".971" stop-color="#F1690E"/><stop offset="1" stop-color="#F06305"/></linearGradient><linearGradient id="g" x1="697.659" x2="776.654" y1="710.778" y2="692.442" gradientUnits="userSpaceOnUse"><stop offset=".269" stop-color="#35DE90"/><stop offset=".467" stop-color="#2FD287"/><stop offset=".828" stop-color="#20B16E"/><stop offset=".923" stop-color="#1BA766"/></linearGradient></defs></svg>

<svg width="1080" height="1081" viewBox="0 0 1080 1081" fill="none" xmlns="http://www.w3.org/2000/svg">
<path d="M922.456 906.467L914.983 818.878L857.808 838.864L877.619 821.138L621.459 533L482.43 656.736L694.796 895.692L738.59 944.873L738.764 944.7L765.18 974.243C822.877 1039.07 929.755 993.012 922.456 906.467Z" fill="url(#paint0_linear_18735_2653)"/>
<path d="M543.082 499.458H157.798C105.141 499.458 59.9563 537.343 50.9194 589.305L0 882.483C6.43009 900.556 16.8572 926.972 29.0222 950.781H593.48L649.787 626.495C661.431 560.109 610.337 499.458 543.082 499.458Z" fill="#35DE90"/>
<path d="M1056.62 210.8H651.525C641.967 210.8 634.147 218.62 634.147 228.178V257.896H604.429C590.179 257.896 582.88 275.275 593.133 285.354L634.147 326.368V480.168C634.147 489.727 641.967 497.547 651.525 497.547H1056.62C1066.18 497.547 1074 489.727 1074 480.168V228.178C1074 218.62 1066.35 210.8 1056.62 210.8Z" fill="url(#paint1_linear_18735_2653)"/>
<path d="M742.415 689.929L723.994 852.766L688.889 629.625L742.415 689.929Z" fill="url(#paint2_linear_18735_2653)"/>
<path d="M174.307 950.782L216.016 710.262L475.131 950.782H174.307Z" fill="url(#paint3_linear_18735_2653)"/>
<path d="M860.589 567.062L728.511 554.897C723.645 554.376 720.17 550.205 720.691 545.513L741.719 315.42C742.241 310.728 746.411 307.078 751.103 307.599L883.181 319.765C888.047 320.286 891.523 324.457 891.001 329.149L869.974 559.242C869.626 563.934 865.281 567.41 860.589 567.062Z" fill="#0096FA"/>
<path d="M875.883 568.278L743.806 556.113C738.94 555.592 735.464 551.421 735.985 546.729L757.014 316.636C757.535 311.77 761.706 308.294 766.398 308.815L898.475 320.98C903.341 321.502 906.817 325.673 906.296 330.365L885.268 560.458C884.92 565.15 880.575 568.626 875.883 568.278Z" fill="#0C4EC0"/>
<path d="M906.99 610.682L942.617 455.491L897.78 375.201L806.194 375.723L806.542 394.491L857.809 406.656L772.132 416.736L776.129 434.115L830.351 438.633L769.004 459.661L775.955 477.387L824.789 476.692L783.776 497.199L789.858 509.017L822.878 503.455L843.558 521.182L807.063 559.936L812.972 604.251" fill="#FCAA73"/>
<path d="M531.96 310.727H493.553C487.818 310.727 483.125 306.035 483.125 300.3V177.433C483.125 171.698 487.818 167.006 493.553 167.006H531.96C537.695 167.006 542.387 171.698 542.387 177.433V300.3C542.387 306.035 537.695 310.727 531.96 310.727Z" fill="#F06305"/>
<path d="M326.544 414.13H288.137C282.402 414.13 277.71 409.438 277.71 403.703V304.645C277.71 298.91 282.402 294.218 288.137 294.218H326.544C332.279 294.218 336.971 298.91 336.971 304.645V403.529C336.971 409.438 332.279 414.13 326.544 414.13Z" fill="#F06305"/>
<path d="M497.897 142.327H315.595L301.692 156.23V499.11H436.377V444.194H497.897C503.284 438.807 506.412 435.678 511.8 430.291V156.23L497.897 142.327Z" fill="#FCAA73"/>
<path d="M317.333 361.646H301.692V418.996H317.333V361.646Z" fill="url(#paint4_linear_18735_2653)"/>
<path d="M388.758 463.311L436.376 499.111V444.194H388.758V463.311Z" fill="url(#paint5_linear_18735_2653)"/>
<path fill-rule="evenodd" clip-rule="evenodd" d="M457.141 292.024C458.351 291.494 459.762 292.045 460.292 293.255L491.052 363.465C491.376 364.205 491.305 365.058 490.864 365.734C490.422 366.41 489.669 366.818 488.861 366.818H455.147C453.825 366.818 452.754 365.747 452.754 364.425C452.754 363.104 453.825 362.033 455.147 362.033H485.2L455.909 295.176C455.379 293.965 455.93 292.554 457.141 292.024Z" fill="#F06305"/>
<path d="M285.183 361.646H323.416V301.863H271.627V348.09C271.627 355.563 277.71 361.646 285.183 361.646Z" fill="#FCAA73"/>
<path d="M295.957 126.514H505.196C510.931 126.514 515.623 131.206 515.623 136.941V192.205C515.623 197.94 510.931 202.632 505.196 202.632H295.957C290.223 202.632 285.53 197.94 285.53 192.205V136.941C285.53 131.206 290.223 126.514 295.957 126.514Z" fill="#F06305"/>
<path d="M307.775 310.727H269.369C263.634 310.727 258.941 306.035 258.941 300.3V175.174C258.941 169.439 263.634 164.747 269.369 164.747H307.775C313.51 164.747 318.203 169.439 318.203 175.174V300.3C318.203 306.035 313.51 310.727 307.775 310.727Z" fill="#F06305"/>
<path d="M342.533 245.558H304.126C298.391 245.558 293.699 240.866 293.699 235.131V196.724C293.699 190.989 298.391 186.297 304.126 186.297H342.533C348.268 186.297 352.96 190.989 352.96 196.724V235.131C352.96 240.866 348.268 245.558 342.533 245.558Z" fill="#F06305"/>
<path d="M527.44 236.867H504.153C498.418 236.867 493.726 232.175 493.726 226.44V203.153C493.726 197.418 498.418 192.726 504.153 192.726H527.44C533.175 192.726 537.868 197.418 537.868 203.153V226.44C537.868 232.175 533.175 236.867 527.44 236.867Z" fill="#F06305"/>
<path d="M758.925 687.668L746.586 803.41L688.889 608.943L758.925 687.668Z" fill="url(#paint6_linear_18735_2653)"/>
<path d="M921.066 921.586L742.24 843.73L769.872 586.005L954.954 605.817L921.066 921.586Z" fill="#35DE90"/>
<defs>
<linearGradient id="paint0_linear_18735_2653" x1="781.846" y1="738.811" x2="517.719" y2="938.852" gradientUnits="userSpaceOnUse">
<stop offset="0.2466" stop-color="#35DE90"/>
<stop offset="0.4433" stop-color="#2FD287"/>
<stop offset="0.8016" stop-color="#20B16E"/>
<stop offset="0.8967" stop-color="#1BA766"/>
</linearGradient>
<linearGradient id="paint1_linear_18735_2653" x1="1070.88" y1="191.979" x2="636.74" y2="516.792" gradientUnits="userSpaceOnUse">
<stop stop-color="#C5D9FB"/>
<stop offset="0.1837" stop-color="#DAE5F8"/>
<stop offset="0.3933" stop-color="#E9EEF6"/>
<stop offset="0.6357" stop-color="#F2F3F5"/>
<stop offset="0.9841" stop-color="#F5F5F5"/>
</linearGradient>
<linearGradient id="paint2_linear_18735_2653" x1="691.755" y1="743.934" x2="789.078" y2="725.936" gradientUnits="userSpaceOnUse">
<stop offset="0.2466" stop-color="#35DE90"/>
<stop offset="0.4433" stop-color="#2FD287"/>
<stop offset="0.8016" stop-color="#20B16E"/>
<stop offset="0.8967" stop-color="#1BA766"/>
</linearGradient>
<linearGradient id="paint3_linear_18735_2653" x1="367.251" y1="811.608" x2="153.606" y2="997.833" gradientUnits="userSpaceOnUse">
<stop offset="0.0527476" stop-color="#35DE90"/>
<stop offset="0.3082" stop-color="#2FD287"/>
<stop offset="0.7732" stop-color="#20B16E"/>
<stop offset="0.8967" stop-color="#1BA766"/>
</linearGradient>
<linearGradient id="paint4_linear_18735_2653" x1="332.717" y1="399.906" x2="279.986" y2="378.103" gradientUnits="userSpaceOnUse">
<stop offset="0.2969" stop-color="#FCAA73"/>
<stop offset="0.4297" stop-color="#FCA76F"/>
<stop offset="0.5643" stop-color="#FAA063"/>
<stop offset="0.6998" stop-color="#F8924E"/>
<stop offset="0.8358" stop-color="#F58032"/>
<stop offset="0.9711" stop-color="#F1690E"/>
<stop offset="1" stop-color="#F06305"/>
</linearGradient>
<linearGradient id="paint5_linear_18735_2653" x1="395.442" y1="488.087" x2="451.303" y2="434.482" gradientUnits="userSpaceOnUse">
<stop offset="0.2969" stop-color="#FCAA73"/>
<stop offset="0.4297" stop-color="#FCA76F"/>
<stop offset="0.5643" stop-color="#FAA063"/>
<stop offset="0.6998" stop-color="#F8924E"/>
<stop offset="0.8358" stop-color="#F58032"/>
<stop offset="0.9711" stop-color="#F1690E"/>
<stop offset="1" stop-color="#F06305"/>
</linearGradient>
<linearGradient id="paint6_linear_18735_2653" x1="697.659" y1="710.778" x2="776.654" y2="692.442" gradientUnits="userSpaceOnUse">
<stop offset="0.2693" stop-color="#35DE90"/>
<stop offset="0.4672" stop-color="#2FD287"/>
<stop offset="0.8276" stop-color="#20B16E"/>
<stop offset="0.9233" stop-color="#1BA766"/>
</linearGradient>
</defs>
</svg>
